flags/az.svg

<svg viewBox="0 0 1200 600" xmlns="http://www.w3.org/2000/svg"><path d="m0 0h1200v600h-1200z" fill="#3f9c35"/><path d="m0 0h1200v400h-1200z" fill="#ed2939"/><path d="m0 0h1200v200h-1200z" fill="#00b9e4"/><circle cx="580" cy="300" fill="#fff" r="90"/><circle cx="600" cy="300" fill="#ed2939" r="75"/><path d="m680 250 9.567 26.903 25.788-12.258-12.258 25.788 26.903 9.567-26.903 9.567 12.258 25.788-25.788-12.258-9.567 26.903-9.567-26.903-25.788 12.258 12.258-25.788-26.903-9.567 26.903-9.567-12.258-25.788 25.788 12.258z" fill="#fff"/></svg>

<svg xmlns="http://www.w3.org/2000/svg" viewBox="0 0 1200 600">
<rect width="1200" height="600" fill="#3f9c35"/>
<rect width="1200" height="400" fill="#ed2939"/>
<rect width="1200" height="200" fill="#00b9e4"/>
<circle cx="580" cy="300" r="90" fill="#fff"/>
<circle cx="600" cy="300" r="75" fill="#ed2939"/>
<path d="M680,250 689.567,276.903 715.355,264.645 703.097,290.433 730,300 703.097,309.567 715.355,335.355 689.567,323.097 680,350 670.433,323.097 644.645,335.355 656.903,309.567 630,300 656.903,290.433 644.645,264.645 670.433,276.903 680,250z" fill="#fff"/>
</svg>
